src/assets/arklabs.svg

<svg xmlns="http://www.w3.org/2000/svg" width="500" height="280" fill="none" viewBox="0 0 500 280"><path fill="url(#a)" fill-rule="evenodd" d="m152.155 149.497-16.626-41.287H93.964L107.444 75h48.98l37.746 93.57h-13.48c-12.807 0-23.816-7.18-28.535-19.073m43.813 23.561 12.859 31.863H93.963l6.741-16.605c3.819-9.424 12.582-15.258 22.693-15.258zm-79.312-53.853c2.921 4.263 3.37 9.2 1.573 13.912l-29.02 71.804H55l37.166-92.448h11.908c5.168 0 9.661 2.468 12.582 6.732" clip-rule="evenodd"/><path fill="#fbfbfb" d="M350.05 76.09h14.077v23.73l18.985-23.73h16.008l-20.433 25.339 21.72 31.775H384.72l-15.284-22.524-5.309 6.435v16.089H350.05zm-29.702 0c11.744 0 20.915 5.952 20.915 17.134 0 7.4-4.022 12.147-10.538 13.916 6.274.644 9.17 3.54 9.653 9.814l1.368 16.25h-14.078l-1.046-13.756c-.321-4.827-2.735-6.435-8.768-6.435h-9.573v20.191h-14.077V76.089zm-12.067 25.419h9.734c5.792 0 8.849-2.413 8.849-6.918s-3.057-6.998-8.849-6.998h-9.734zm-77.628 31.695 20.593-57.115h16.249l20.594 57.115h-14.4l-3.7-10.78h-21.317l-3.701 10.78zm21.88-21.961h13.675l-6.837-20.03zm159.186 72.468c1.045 5.551 4.907 9.171 11.503 9.171 4.827 0 8.044-1.931 7.964-5.551-.081-3.7-3.137-5.631-11.262-7.561-13.354-3.138-21.157-8.366-21.157-17.537 0-10.618 9.01-17.295 22.685-17.295 12.952 0 21.8 7.883 23.168 19.708l-13.917.644c-.563-5.631-4.183-9.01-9.653-9.01-4.907 0-8.286 2.414-7.964 6.195.161 4.102 5.068 5.631 10.78 6.918 13.434 2.735 21.558 8.366 21.558 17.617 0 10.94-9.572 17.295-22.524 17.295-14.399 0-24.374-7.723-25.178-19.95zm-68.775 19.631v-57.114h21.237c16.249 0 24.293 4.827 24.293 15.847 0 6.838-4.344 10.94-12.066 11.745h-.081c9.573.804 14.561 5.309 14.561 13.353 0 10.619-7.964 16.169-23.49 16.169zm14.077-11.02h10.86c5.148 0 8.929-2.092 8.929-6.516 0-4.505-3.7-6.677-8.929-6.677h-10.86zm0-22.846h8.527c5.229 0 8.849-1.931 8.849-6.033 0-4.264-3.459-6.194-8.849-6.194h-8.527zm-77.66 33.866 20.594-57.114h16.249l20.593 57.114h-14.399l-3.7-10.779h-21.317l-3.701 10.779zm21.881-21.96h13.675l-6.838-20.031zm-67.193 21.96v-57.114h14.078v45.611h25.5v11.503z"/><defs><radialGradient id="a" cx="0" cy="0" r="1" gradientTransform="rotate(.781 -12434.963 11512.579)scale(114.341 135.38)" gradientUnits="userSpaceOnUse"><stop stop-color="#fc8d4e"/><stop offset="1" stop-color="#ffaf82"/></radialGradient></defs></svg>

<svg width="500" height="280" viewBox="0 0 500 280" fill="none" xmlns="http://www.w3.org/2000/svg">
<path fill-rule="evenodd" clip-rule="evenodd" d="M152.155 149.497L135.529 108.21H93.9635L107.444 75H156.424L194.17 168.57H180.69C167.883 168.57 156.874 161.39 152.155 149.497ZM195.968 173.058L208.827 204.921H174.623H93.9635L100.704 188.316C104.523 178.892 113.286 173.058 123.397 173.058H195.968ZM116.656 119.205C119.577 123.468 120.026 128.405 118.229 133.117L89.2091 204.921H55L92.1661 112.473H104.074C109.242 112.473 113.735 114.941 116.656 119.205Z" fill="url(#paint0_angular_749_549)"/>
<path d="M350.05 76.0894H364.127V99.82L383.112 76.0894H399.12L378.687 101.429L400.407 133.204H384.72L369.436 110.68L364.127 117.115V133.204H350.05V76.0894Z" fill="#FBFBFB"/>
<path d="M320.348 76.0894C332.092 76.0894 341.263 82.0421 341.263 93.2237C341.263 100.624 337.241 105.371 330.725 107.14C336.999 107.784 339.895 110.68 340.378 116.954L341.746 133.204H327.668L326.622 119.448C326.301 114.621 323.887 113.013 317.854 113.013H308.281V133.204H294.204V76.0894H320.348ZM308.281 101.509H318.015C323.807 101.509 326.864 99.096 326.864 94.5912C326.864 90.0864 323.807 87.5927 318.015 87.5927H308.281V101.509Z" fill="#FBFBFB"/>
<path d="M230.653 133.204L251.246 76.0894H267.495L288.089 133.204H273.689L269.989 122.424H248.672L244.971 133.204H230.653ZM252.533 111.243H266.208L259.371 91.2126L252.533 111.243Z" fill="#FBFBFB"/>
<path d="M411.719 183.711C412.764 189.262 416.626 192.882 423.222 192.882C428.049 192.882 431.266 190.951 431.186 187.331C431.105 183.631 428.049 181.7 419.924 179.77C406.57 176.632 398.767 171.404 398.767 162.233C398.767 151.615 407.777 144.938 421.452 144.938C434.404 144.938 443.252 152.821 444.62 164.646L430.703 165.29C430.14 159.659 426.52 156.28 421.05 156.28C416.143 156.28 412.764 158.694 413.086 162.475C413.247 166.577 418.154 168.106 423.866 169.393C437.3 172.128 445.424 177.759 445.424 187.01C445.424 197.95 435.852 204.305 422.9 204.305C408.501 204.305 398.526 196.582 397.722 184.355L411.719 183.711Z" fill="#FBFBFB"/>
<path d="M342.944 203.342V146.228H364.181C380.43 146.228 388.474 151.055 388.474 162.075C388.474 168.913 384.13 173.015 376.408 173.82H376.327C385.9 174.624 390.888 179.129 390.888 187.173C390.888 197.792 382.924 203.342 367.398 203.342H342.944ZM357.021 192.322H367.881C373.029 192.322 376.81 190.23 376.81 185.806C376.81 181.301 373.11 179.129 367.881 179.129H357.021V192.322ZM357.021 169.476H365.548C370.777 169.476 374.397 167.545 374.397 163.443C374.397 159.179 370.938 157.249 365.548 157.249H357.021V169.476Z" fill="#FBFBFB"/>
<path d="M279.361 203.342L299.955 146.228H316.204L336.797 203.342H322.398L318.698 192.563H297.381L293.68 203.342H279.361ZM301.242 181.382H314.917L308.079 161.351L301.242 181.382Z" fill="#FBFBFB"/>
<path d="M234.049 203.342V146.228H248.127V191.839H273.627V203.342H234.049Z" fill="#FBFBFB"/>
<defs>
<radialGradient id="paint0_angular_749_549" cx="0" cy="0" r="1" gradientUnits="userSpaceOnUse" gradientTransform="translate(155.819 170.622) rotate(0.781257) scale(114.341 135.38)">
<stop stop-color="#FC8D4E"/>
<stop offset="1" stop-color="#FFAF82"/>
</radialGradient>
</defs>
</svg>
